X:765
T: Miss Butler's
T: R\'il In\'ion de Buitl\'eir
S: B.Breathnach:"Ceol Rince na hEireann" IV/153
Z: B.Black
L: 1/8
M: 4/4
R: reel
K: G
BG (3GGG Bdgd|BGBG FGAc|BG (3GGG Bdgd|cBAc BG G2 :|
dg g2 dgbg|agbg ea a2|dg g2 dgba|gedc BG G2|
dg g2 dgbg|agbg ea a2|bg (3efg dgbg|eaaf gedc ||
